X:1
T:Title
%%score ( 1 2 ) 3
L:1/8
Q:1/4=108
M:4/4
K:Bb
V:1 treble nm="Grand Piano, Soprano"
V:2 treble 
V:3 bass nm="Choir Pad, Nagpur, 87.87.87.7"
V:1
 F2 [DB]2 [EB]2 [FB]2- | [FB][FB] [EA]2 [DB]2 [Fc]2 | [Fc]2 [Fd]2 [FB]2 [Fe]2 | [Fd]2 [Fd]2 [Fc]4 | %4
w: By~Theodore~Edson~Perkins * * *||||
 F2 [DB]2 [EB]2 [FB]2- | [FB][FB] [EA]2 [DB]2 [Fc]2 | z4 e2 z2 | [GB]2 [Ec]2 [DB]4 | %8
w: ||||
 F2 F2 [FG]2 [FA]2- | [FA][FB] [Fc]2 [Fd]2 [Fe]2- | [Fe][Fe] [Fd]2 [Fc]2 [DB]2 | F2 [EG]2 [GB]4 | %12
w: ||||
 [EG]2 F2 [EF]2 [DB]2 | [Fd]2 [Ec]2 [DB]4- | [DB]4 z4 |] %15
w: |||
V:2
 x8 | x8 | x8 | x8 | x8 | x8 | [Fd]2 [Ge]2 EF [Fd]2 | x8 | x8 | x8 | x8 | x8 | x8 | x8 | x8 |] %15
V:3
 [F,A,]2 [B,,B,]2 [C,B,]2 [D,B,]2- | [D,B,][D,B,] [C,F,]2 [B,,F,]2 [F,A,]2 | %2
 [F,A,]2 B,2 [D,B,]2 [C,A,]2 | [B,,B,]2 [F,B,]2 [F,A,]4 | [F,A,]2 [B,,B,]2 [C,B,]2 [D,B,]2- | %5
 [D,B,][D,B,] [C,F,]2 [B,,F,]2 [F,A,]2 | B,2 [E,B,]2 [G,B,][A,C] B,2 | [D,B,]2 [F,A,]2 [B,,B,]4 | %8
 [F,A,]2 [F,A,]2 [F,B,]2 [F,C]2- | [F,C][F,D] [F,A,]2 [F,B,]2 [F,C]2- | %10
 [F,C][A,C] B,2 [F,A,]2 [G,B,]2 | [D,B,]2 [E,B,]2 [E,B,]4 | [E,B,]2 [D,B,]2 [C,A,]2 [B,,B,]2 | %13
 B,2 [F,A,]2 [B,,B,]4- | [B,,B,]4 z4 |] %15

